certificate-outline.svg

<svg fill="currentColor" viewBox="0 0 24 24"><path d="m13 21 2-1 2 1v-7h-4m4-5V7l-2 1-2-1v2l-2 1 2 1v2l2-1 2 1v-2l2-1m1-7H4a2 2 0 0 0-2 2v10a2 2 0 0 0 2 2h7v-2H4V5h16v10h-1v2h1a2 2 0 0 0 2-2V5a2 2 0 0 0-2-2m-9 5H5V6h6m-2 5H5V9h4m2 5H5v-2h6Z"/></svg>

<svg  viewBox="0 0 24 24" fill="currentColor"><path  d="M13 21L15 20L17 21V14H13M17 9V7L15 8L13 7V9L11 10L13 11V13L15 12L17 13V11L19 10M20 3H4A2 2 0 0 0 2 5V15A2 2 0 0 0 4 17H11V15H4V5H20V15H19V17H20A2 2 0 0 0 22 15V5A2 2 0 0 0 20 3M11 8H5V6H11M9 11H5V9H9M11 14H5V12H11Z"/></svg>
